source/images/printer.svg

<?xml version="1.0" encoding="iso-8859-1"?>
<!-- Generator: Adobe Illustrator 16.0.4, SVG Export Plug-In . SVG Version: 6.00 Build 0)  -->
<!DOCTYPE svg PUBLIC "-//W3C//DTD SVG 1.1//EN" "http://www.w3.org/Graphics/SVG/1.1/DTD/svg11.dtd">
<svg version="1.1" id="Layer_1" xmlns="http://www.w3.org/2000/svg" xmlns:xlink="http://www.w3.org/1999/xlink" x="0px" y="0px"
	 width="26px" height="26px" viewBox="0 0 26 26" style="enable-background:new 0 0 26 26;" xml:space="preserve">
<g id="_x35_17-printer.png">
	<g>
		<path fill="#ffdddc" d="M25,8h-3V2c0-1.104-0.896-2-2-2H6C4.896,0,4,0.896,4,2v6H1C0.447,8,0,8.448,0,9v10c0,0.553,0.447,1,1,1h3v4
			c0,1.104,0.896,2,2,2h14c1.104,0,2-0.896,2-2v-4h3c0.553,0,1-0.447,1-1V9C26,8.448,25.553,8,25,8z M20,24H6v-9h14V24z M20,8H6V2
			h14V8z M22.5,13c-0.828,0-1.5-0.672-1.5-1.5s0.672-1.5,1.5-1.5s1.5,0.672,1.5,1.5S23.328,13,22.5,13z M18,17H8v2h10V17z M15,20H8
			v2h7V20z"/>
	</g>
</g>
<g>
</g>
<g>
</g>
<g>
</g>
<g>
</g>
<g>
</g>
<g>
</g>
<g>
</g>
<g>
</g>
<g>
</g>
<g>
</g>
<g>
</g>
<g>
</g>
<g>
</g>
<g>
</g>
<g>
</g>
</svg>

<svg width="26" height="26" viewBox="0 0 26 26" fill="none" xmlns="http://www.w3.org/2000/svg">
<g clip-path="url(#clip0_1192_12014)">
<path d="M25 8H22V2C22 0.896 21.104 0 20 0H6C4.896 0 4 0.896 4 2V8H1C0.447 8 0 8.448 0 9V19C0 19.553 0.447 20 1 20H4V24C4 25.104 4.896 26 6 26H20C21.104 26 22 25.104 22 24V20H25C25.553 20 26 19.553 26 19V9C26 8.448 25.553 8 25 8ZM20 24H6V15H20V24ZM20 8H6V2H20V8ZM22.5 13C21.672 13 21 12.328 21 11.5C21 10.672 21.672 10 22.5 10C23.328 10 24 10.672 24 11.5C24 12.328 23.328 13 22.5 13ZM18 17H8V19H18V17ZM15 20H8V22H15V20Z" fill="white"/>
</g>
<defs>
<clipPath id="clip0_1192_12014">
<rect width="26" height="26" fill="white"/>
</clipPath>
</defs>
</svg>
